svgs/regular/square-minus.svg

<svg xmlns="http://www.w3.org/2000/svg" viewBox="0 0 448 512"><!-- Font Awesome Pro 6.0.0-alpha2 by @fontawesome - https://fontawesome.com License - https://fontawesome.com/license (Commercial License) --><path d="M320 232H128C114.745 232 104 242.745 104 256V256C104 269.255 114.745 280 128 280H320C333.255 280 344 269.255 344 256V256C344 242.745 333.255 232 320 232ZM384 32H64C28.654 32 0 60.654 0 96V416C0 451.346 28.654 480 64 480H384C419.346 480 448 451.346 448 416V96C448 60.654 419.346 32 384 32ZM400 416C400 424.822 392.822 432 384 432H64C55.178 432 48 424.822 48 416V96C48 87.178 55.178 80 64 80H384C392.822 80 400 87.178 400 96V416Z"/></svg>

<svg xmlns="http://www.w3.org/2000/svg" viewBox="0 0 448 512"><!--! Font Awesome Pro 6.0.0-alpha3 by @fontawesome - https://fontawesome.com License - https://fontawesome.com/license (Commercial License) --><path d="M319.1 232h-192C114.7 232 103.1 242.7 103.1 256S114.7 280 127.1 280h192c13.25 0 23.1-10.75 23.1-24S333.3 232 319.1 232zM384 32H64C28.65 32 0 60.65 0 96v320c0 35.35 28.65 64 64 64h320c35.35 0 64-28.65 64-64V96C448 60.65 419.3 32 384 32zM400 416c0 8.822-7.178 16-16 16H64c-8.822 0-16-7.178-16-16V96c0-8.822 7.178-16 16-16h320c8.822 0 16 7.178 16 16V416z"/></svg>
